X: 174
T: Regina celi
N: Derived from Rue2019-Regina_celi.krn
C: Pierre de la Rue
%%abc-version 2.0
%%abcx-abcm2ps-target-version 5.9.1 (29 Sep 2008)
%%abc-creator hum2abc beta
%%abcx-conversion-date 2019/02/17 08:01:17
%%abc-edited-by Jesse Rodin
%%abc-edited-by Jesse Rodin; Chris Gage 01-02-2013
%%abcx-initial-encoding-date 2013/07/16/
%%humdrum-veritas 3411342192
%%humdrum-veritas-data 642619453
%%linebreak <none>
%%barnumbers 0
L: 1/4
M: 2/1
Q: 1/2=120
%%staves [1 2 3 4]
V: 1 clef=treble
V: 2 clef=treble-8
V: 3 clef=treble-8
V: 4 clef=bass
K: C
[V:1] z8 | 
[V:2] B4B2cd | 
[V:3] z8 | 
[V:4] z8 | 
[V:1] z8 | 
[V:2] e4edcB | 
[V:3] z8 | 
[V:4] E,4E,2F,G, | 
[V:1] E4E2FG | 
[V:2] A8- | 
[V:3] z8 | 
[V:4] A,4A,G,F,E, | 
[V:1] A4AGFE | 
[V:2] A8 | 
[V:3] F8 | 
[V:4] D,8 | 
[V:1] D4E4- | 
[V:2] B4B4- | 
[V:3] G8 | 
[V:4] z8 | 
[V:1] E2D2D4 | 
[V:2] B2A2A4 | 
[V:3] F8 | 
[V:4] z8 | 
[V:1] E8 | 
[V:2] B8 | 
[V:3] G8 | 
[V:4] E,6A,,2 | 
[V:1] z4z2A2- | 
[V:2] z2e4A2 | 
[V:3] A8 | 
[V:4] A,,8 | 
[V:1] A2D2D3C/D/ | 
[V:2] A4z2d2- | 
[V:3] z8 | 
[V:4] z2D,4G,,2 | 
[V:1] EDG4F2 | 
[V:2] d2G2A4 | 
[V:3] z8 | 
[V:4] G,,4D,4 | 
[V:1] G2A2D2d2- | 
[V:2] G2d2B3c | 
[V:3] z8 | 
[V:4] z2D,4G,,2 | 
[V:1] d2G2G4 | 
[V:2] d4e2g2- | 
[V:3] _B8 | 
[V:4] G,,8 | 
[V:1] z4A4 | 
[V:2] g2^fe^f4 | 
[V:3] A8 | 
[V:4] z4D,4 | 
[V:1] B4BAGF | 
[V:2] g3fd2e2- | 
[V:3] G8- | 
[V:4] G,,2G,4C,2 | 
[V:1] E4D2G2 | 
[V:2] e2dcB2E2 | 
[V:3] G8 | 
[V:4] C,4z2C,2 | 
[V:1] F2E4D2 | 
[V:2] z8 | 
[V:3] _B4A2F2 | 
[V:4] D,2E,2F,4 | 
[V:1] E4z2B2 | 
[V:2] z2B2c2B2 | 
[V:3] G4G4- | 
[V:4] E,8- | 
[V:1] c2B3AGF | 
[V:2] E4z2B2 | 
[V:3] G8- | 
[V:4] E,8- | 
[V:1] E4z2B2 | 
[V:2] c2B4e2 | 
[V:3] G4G4 | 
[V:4] E,8 | 
[V:1] c2d3cBA | 
[V:2] A2f3edc | 
[V:3] F8 | 
[V:4] z8 | 
[V:1] GABcB2A2- | 
[V:2] Bcded2A2 | 
[V:3] z8 | 
[V:4] E,2D,C,D,2F,2 | 
[V:1] A2^G2A2E2 | 
[V:2] B4z2e2- | 
[V:3] z8 | 
[V:4] E,4A,,2C,2 | 
[V:1] F4E4 | 
[V:2] e2d2e3d | 
[V:3] z8 | 
[V:4] D,3C,A,,2E,2- | 
[V:1] z2B4A2 | 
[V:2] B2d2c2BA | 
[V:3] z8 | 
[V:4] E,2D,2E,2F,2 | 
[V:1] B2d2c3B/A/ | 
[V:2] G4z2c2- | 
[V:3] z8 | 
[V:4] G,4A,4 | 
[V:1] G2E2F2G2- | 
[V:2] cBG2A2B2 | 
[V:3] z8 | 
[V:4] E,2G,2F,2E,D, | 
[V:1] GFE4D2 | 
[V:2] E2e2f4 | 
[V:3] z4F4 | 
[V:4] C,4D,4 | 
[V:1] E8 | 
[V:2] e4z2A2- | 
[V:3] c8- | 
[V:4] A,,8 | 
[V:1] z4z2A2- | 
[V:2] A2G2A3E | 
[V:3] c8- | 
[V:4] z2E,2F,3E, | 
[V:1] A2G2A4 | 
[V:2] E4z2c2- | 
[V:3] c8 | 
[V:4] C,4A,,3B,, | 
[V:1] E4z2c2- | 
[V:2] c2BAG2A2 | 
[V:3] z8 | 
[V:4] C,8- | 
[V:1] c2BAG2c2- | 
[V:2] E3FG4- | 
[V:3] z4c4 | 
[V:4] C,8 | 
[V:1] c2B2B4 | 
[V:2] G4z2G2 | 
[V:3] d8- | 
[V:4] G,,8 | 
[V:1] z2B2A2B2- | 
[V:2] F2G2z2G2 | 
[V:3] d8 | 
[V:4] z2G,,2F,,2G,,2- | 
[V:1] BAGFE4 | 
[V:2] G4G4 | 
[V:3] d4c4- | 
[V:4] G,,A,,B,,2C,4- | 
[V:1] z2E2D2G2- | 
[V:2] E3FG4 | 
[V:3] c4_B4- | 
[V:4] C,4G,,4- | 
[V:1] GFEDC4 | 
[V:2] z2G4F2 | 
[V:3] B4A4 | 
[V:4] G,,4A,,4 | 
[V:1] B,2E4D2 | 
[V:2] G2B4A2 | 
[V:3] G4F4 | 
[V:4] E,4F,4 | 
[V:1] E4C3C | 
[V:2] B4e4- | 
[V:3] G8- | 
[V:4] E,4E,2E,2- | 
[V:1] B,4z2B2 | 
[V:2] e4d4 | 
[V:3] G8 | 
[V:4] E,2D,C,B,,4 | 
[V:1] c4c4 | 
[V:2] c4e4 | 
[V:3] A8 | 
[V:4] A,,8 | 
[V:1] d3cBAB2- | 
[V:2] d4g3f | 
[V:3] _B4G4 | 
[V:4] z8 | 
[V:1] B2A4G2 | 
[V:2] ede4d2 | 
[V:3] A4_B4 | 
[V:4] z8 | 
[V:1] A8 | 
[V:2] e8 | 
[V:3] c8 | 
[V:4] A,,8- | 
[V:1] z4A4 | 
[V:2] c4A4 | 
[V:3] A4F4 | 
[V:4] A,,8 | 
[V:1] B2G4c2- | 
[V:2] z2B4G2 | 
[V:3] G8 | 
[V:4] E,8 | 
[V:1] cBAGA4 | 
[V:2] A2c4d2 | 
[V:3] F4z4 | 
[V:4] F,8 | 
[V:1] G2B4A2- | 
[V:2] e4z2f2- | 
[V:3] z8 | 
[V:4] E,4D,4- | 
[V:1] A2d3cc2 | 
[V:2] f2d2e4 | 
[V:3] z8 | 
[V:4] D,4A,,4 | 
[V:1] d2B4AG | 
[V:2] d4e4 | 
[V:3] z8 | 
[V:4] z4z2E,2- | 
[V:1] A4G4 | 
[V:2] f4e4 | 
[V:3] z4z2_B2- | 
[V:4] E,2D,2E,2G,2- | 
[V:1] z2B2c2d2- | 
[V:2] z8 | 
[V:3] B2G2A2_B2 | 
[V:4] G,F,E,D,C,2G,,2 | 
[V:1] d2c4B2 | 
[V:2] z8 | 
[V:3] c4d4 | 
[V:4] A,,4G,,4 | 
[V:1] c8 | 
[V:2] e4c2A2 | 
[V:3] c3_BA2F2 | 
[V:4] A,,8 | 
[V:1] B4z2E2 | 
[V:2] d4e4 | 
[V:3] G4G4 | 
[V:4] G,,4z2C,2 | 
[V:1] F2D2E2F2 | 
[V:2] d4z2d2- | 
[V:3] F4z2_B2- | 
[V:4] D,2F,2E,C,D,2 | 
[V:1] G2E2F2G2 | 
[V:2] dBc4d2 | 
[V:3] B2G2A2_B2 | 
[V:4] G,,2C,2z2G,,2 | 
[V:1] C2E2D2A2 | 
[V:2] A2G2d2c2 | 
[V:3] c4F4 | 
[V:4] A,,2C,2D,2A,,2 | 
[V:1] B2c2d3c | 
[V:2] B2e2d2f2 | 
[V:3] G4F4 | 
[V:4] E,2C,2F,2D,2 | 
[V:1] BAA4^G2 | 
[V:2] e2dcB4 | 
[V:3] z8 | 
[V:4] E,8 | 
[V:1] A8 ||  
[V:2] A8 ||  
[V:3] z8 ||  
[V:4] A,,8 ||  
[V:1]  [K:C] [K:clef=treble][M:2/1]z8 | 
[V:2]  [K:C] [K:clef=treble-8][M:2/1]A8 | 
[V:3]  [K:C] [K:clef=treble-8][M:2/1]z8 | 
[V:4]  [K:C] [K:clef=bass][M:2/1]z8 | 
[V:1] z4E4 | 
[V:2] G2B4c2 | 
[V:3] z8 | 
[V:4] z8 | 
[V:1] D2F4G2 | 
[V:2] d8 | 
[V:3] _B8 | 
[V:4] z8 | 
[V:1] A2B2c4 | 
[V:2] e8 | 
[V:3] c8 | 
[V:4] A,,8 | 
[V:1] B4z4 | 
[V:2] z2d4cB | 
[V:3] d8- | 
[V:4] G,,2B,,4C,2 | 
[V:1] z2B4A2 | 
[V:2] ABG4^F2 | 
[V:3] d8- | 
[V:4] D,2G,,2D,4 | 
[V:1] B2d3cB2 | 
[V:2] G4z2G2 | 
[V:3] d8 | 
[V:4] G,,8 | 
[V:1] A2c3BAG | 
[V:2] A2G3FG2 | 
[V:3] c4c4- | 
[V:4] z2C,3D,E,2 | 
[V:1] F2E4D2 | 
[V:2] A2E2F4 | 
[V:3] c4=B4 | 
[V:4] F,2C,2D,4 | 
[V:1] E4z2E2 | 
[V:2] E8 | 
[V:3] c8- | 
[V:4] A,,8- | 
[V:1] F2E4DC | 
[V:2] z2E4A2 | 
[V:3] c8 | 
[V:4] A,,8 | 
[V:1] B,2E4G2 | 
[V:2] B2c3Be2- | 
[V:3] z8 | 
[V:4] z8 | 
[V:1] F2EDC2E2- | 
[V:2] e2d2e2c2- | 
[V:3] z8 | 
[V:4] z8 | 
[V:1] ECD2B,4 | 
[V:2] cAB2^G3^F | 
[V:3] z8 | 
[V:4] z8 | 
[V:1] A,4z4 | 
[V:2] A8 | 
[V:3] c8 | 
[V:4] A,,8 | 
[V:1] z8 | 
[V:2] z8 | 
[V:3] c6_B2 | 
[V:4] C,3D,E,2F,2- | 
[V:1] z8 | 
[V:2] z8 | 
[V:3] A2G2F4 | 
[V:4] F,2E,4D,2 | 
[V:1] z4E4 | 
[V:2] e4g3f | 
[V:3] G8- | 
[V:4] E,8- | 
[V:1] G3AB2c2- | 
[V:2] ede3dcB | 
[V:3] G8 | 
[V:4] E,8 | 
[V:1] cBAGA4 | 
[V:2] A2B2c4 | 
[V:3] F8 | 
[V:4] z8 | 
[V:1] B4z2E2 | 
[V:2] B2e2g4- | 
[V:3] z8 | 
[V:4] G,4G,2E,2- | 
[V:1] G3AB2c2- | 
[V:2] g2fed2cB | 
[V:3] z8 | 
[V:4] E,2D,C,B,,2A,,2 | 
[V:1] cBAGA4 | 
[V:2] AGG4^F2 | 
[V:3] z8 | 
[V:4] C,3A,,A,,4 | 
[V:1] D8 | 
[V:2] G8 | 
[V:3] _B8- | 
[V:4] G,,8- | 
[V:1] z4G4- | 
[V:2] z4B4 | 
[V:3] B4G4 | 
[V:4] G,,8 | 
[V:1] G2F2F4 | 
[V:2] c4d4- | 
[V:3] A8 | 
[V:4] z4D,4 | 
[V:1] G8 | 
[V:2] d2G2G4 | 
[V:3] _B8 | 
[V:4] G,,2G,3F,E,D, | 
[V:1] E3FG2A2- | 
[V:2] A4E4 | 
[V:3] c8- | 
[V:4] C,3D,E,2A,,2 | 
[V:1] A2G2E2F2- | 
[V:2] z8 | 
[V:3] c8 | 
[V:4] A,,4z2A,2- | 
[V:1] F2E3DD2 | 
[V:2] z4A4 | 
[V:3] c4A2F2 | 
[V:4] A,G,E,2F,4 | 
[V:1] E8 | 
[V:2] B4B2G2- | 
[V:3] G8- | 
[V:4] E,4z2E,2- | 
[V:1] z8 | 
[V:2] G2FED2E2 | 
[V:3] G8- | 
[V:4] E,2D,C,B,,2C,2 | 
[V:1] z8 | 
[V:2] D2d4G2 | 
[V:3] G8 | 
[V:4] B,,2G,,2B,,2C,2 | 
[V:1] c8 | 
[V:2] A3Bc4 | 
[V:3] F8 | 
[V:4] A,,4A,,4 | 
[V:1] B6AG | 
[V:2] d4G2d2- | 
[V:3] z8 | 
[V:4] G,,8 | 
[V:1] A2G4FE | 
[V:2] d2e4dc | 
[V:3] z8 | 
[V:4] z8 | 
[V:1] D4z2G2- | 
[V:2] dcBAB4 | 
[V:3] z8 | 
[V:4] G,,8 | 
[V:1] G2E4A2- | 
[V:2] E8 | 
[V:3] c8- | 
[V:4] C,6D,2 | 
[V:1] AGG2A4- | 
[V:2] z4e4 | 
[V:3] c8 | 
[V:4] E,4A,,4 | 
[V:1] A2D2D4 | 
[V:2] f6d2 | 
[V:3] F8 | 
[V:4] D,6G,,2 | 
[V:1] z2G4F2 | 
[V:2] e2d3cc2 | 
[V:3] G4A4 | 
[V:4] G,,4z4 | 
[V:1] G6F2 | 
[V:2] d8 | 
[V:3] _B6A2 | 
[V:4] G,,8 | 
[V:1] E4D4 | 
[V:2] z4d4 | 
[V:3] G4F4 | 
[V:4] C,4D,4 | 
[V:1] C4z2c2- | 
[V:2] e8 | 
[V:3] E8 | 
[V:4] A,,8- | 
[V:1] cBA4GF | 
[V:2] A4c3d | 
[V:3] F4A4 | 
[V:4] A,,8 | 
[V:1] E2G3FED | 
[V:2] e4z4 | 
[V:3] G8- | 
[V:4] C,3D,E,F,G,2- | 
[V:1] E2D4^C2 | 
[V:2] z4e4 | 
[V:3] G8 | 
[V:4] G,F,E,D,E,4 | 
[V:1] D8 | 
[V:2] f6ed | 
[V:3] F8 | 
[V:4] D,8 | 
[V:1] z8 | 
[V:2] c2d2c2f2- | 
[V:3] z4F4 | 
[V:4] F,8 | 
[V:1] z8 | 
[V:2] f2e3dd2 | 
[V:3] A4_B4 | 
[V:4] C,4D,4 | 
[V:1] A4A4 | 
[V:2] e8 | 
[V:3] c8 | 
[V:4] A,,8 | 
[V:1] B2d3cBA | 
[V:2] z2f3edc | 
[V:3] d8 | 
[V:4] z8 | 
[V:1] BEA4G2 | 
[V:2] d2e4d2 | 
[V:3] c2A2_B4 | 
[V:4] z8 | 
[V:1] A8 | 
[V:2] e4z4 | 
[V:3] A2c4A2 | 
[V:4] A,6F,2 | 
[V:1] z8 | 
[V:2] z8 | 
[V:3] _B2c3_BAG | 
[V:4] G,2A,3G,F,E, | 
[V:1] z8 | 
[V:2] z8 | 
[V:3] F2A2G4 | 
[V:4] D,C,F,4E,2- | 
[V:1] A4A4 | 
[V:2] z4f4 | 
[V:3] F8 | 
[V:4] E,2D,C,D,4 | 
[V:1] G2c4B2- | 
[V:2] e3dcBe2- | 
[V:3] z8 | 
[V:4] E,8- | 
[V:1] B2A3FG2 | 
[V:2] e2dcB4 | 
[V:3] z8 | 
[V:4] E,8 | 
[V:1] CDEFE2DC | 
[V:2] ABcdc2BA | 
[V:3] z8 | 
[V:4] z8 | 
[V:1] B,2A,2EFGA | 
[V:2] G2A2cdef | 
[V:3] z8 | 
[V:4] z8 | 
[V:1] G2FED2C2 | 
[V:2] e2dcB2E2 | 
[V:3] z8 | 
[V:4] z8 | 
[V:1] GABcB2G2 | 
[V:2] e8 | 
[V:3] z8 | 
[V:4] E,F,G,A,G,2F,E, | 
[V:1] A4z4 | 
[V:2] f6e2 | 
[V:3] F4_B4 | 
[V:4] D,4z2G,2- | 
[V:1] z2A2B2G2- | 
[V:2] d8- | 
[V:3] A4G4- | 
[V:4] G,2^F,2G,4 | 
[V:1] G2F2G3F | 
[V:2] d8 | 
[V:3] G2A2_B4 | 
[V:4] z4G,4 | 
[V:1] E2F4E2- | 
[V:2] z8 | 
[V:3] c8 | 
[V:4] A,6G,2 | 
[V:1] E2D2E4 | 
[V:2] A4B4 | 
[V:3] A2F2G4 | 
[V:4] F,4E,4 | 
[V:1] z2A2F2A2 | 
[V:2] A2d3cA2 | 
[V:3] F8 | 
[V:4] z2F,2D,2F,2 | 
[V:1] G2E2G2F2 | 
[V:2] B2e3dc2 | 
[V:3] z8 | 
[V:4] E,2C,2E,2F,2 | 
[V:1] D2A2F2A2 | 
[V:2] B2A2d4 | 
[V:3] z4F4 | 
[V:4] G,2F,2D,4 | 
[V:1] G2E4D2 | 
[V:2] G4A4 | 
[V:3] _B4A4 | 
[V:4] G,4F,4 | 
[V:1] [M:3/1]E6F2G4 | 
[V:2] [M:3/1]B6c2d4 | 
[V:3] [M:3/1]G6A2_B4 | 
[V:4] [M:3/1]E,8z4 | 
[V:1] A6G2E4 | 
[V:2] e12 | 
[V:3] c12 | 
[V:4] A,,6B,,2C,4 | 
[V:1] F8E4 | 
[V:2] d8B4 | 
[V:3] A4F4G4- | 
[V:4] D,8E,4 | 
[V:1] E8D4 | 
[V:2] c4A6B2 | 
[V:3] G4F8 | 
[V:4] C,4D,8 | 
[V:1] E12- | 
[V:2] B12- | 
[V:3] z12 | 
[V:4] G,8E,4 | 
[V:1] E12 |]  
[V:2] B12 |]  
[V:3] z12 |]  
[V:4] E,12 |]  



